src/assets/images/sidebar/icon-search.svg

<svg preserveAspectRatio="none" width="100%" height="100%" overflow="visible" style="display: block;" viewBox="0 0 14.8504 15.2723" fill="none" xmlns="http://www.w3.org/2000/svg">
<g>
<path d="M6.32793 0.25C2.9715 0.25 0.25 2.97186 0.25 6.32874C0.25 9.68562 2.9715 12.4075 6.32793 12.4075C9.68436 12.4075 12.4059 9.68562 12.4059 6.32874C12.4059 2.97186 9.68436 0.25 6.32793 0.25ZM6.32793 11.3763C3.54131 11.3763 1.28108 9.11574 1.28108 6.32874C1.28108 3.54175 3.54131 1.28122 6.32793 1.28122C9.11456 1.28122 11.3748 3.54175 11.3748 6.32874C11.3748 9.11574 9.11456 11.3763 6.32793 11.3763Z" fill="#2036CA" stroke="#2036CA" stroke-width="0.5"/>
<path d="M13.1304 14.9767C13.5211 15.3675 14.1577 15.3713 14.5523 14.9854C14.947 14.5994 14.9501 13.9697 14.5595 13.579L13.8449 14.2779L13.1304 14.9767ZM11.0547 11.4873L10.3401 12.1862L13.1304 14.9767L13.8449 14.2779L14.5595 13.579L11.7692 10.7884L11.0547 11.4873Z" fill="#2036CA"/>
</g>
</svg>

<svg xmlns="http://www.w3.org/2000/svg" fill="none" overflow="visible" preserveAspectRatio="none" style="display:block" viewBox="0 0 14.85 15.272"><g fill="#2036ca"><path stroke="#2036ca" stroke-width=".5" d="M6.328.25a6.079 6.079 0 1 0 .002 12.157A6.079 6.079 0 0 0 6.328.25Zm0 11.126A5.048 5.048 0 1 1 6.33 1.28a5.048 5.048 0 0 1-.002 10.096Z"/><path d="M13.13 14.977c.391.39 1.028.394 1.422.008a.987.987 0 0 0 .008-1.406l-.715.699zm-2.075-3.49-.715.7 2.79 2.79.715-.7.714-.698-2.79-2.79z"/></g></svg>
